static/assets/head_icons_png/man/bizi/1026047.svg

<svg xmlns="http://www.w3.org/2000/svg" width="5" height="10"><g transform="translate(2.2 4.9)"><radialGradient id="a" gradientUnits="userSpaceOnUse" gradientTransform="matrix(0 -.00313 .00746 -.0003 .45 6.4)" spreadMethod="pad" cx="0" cy="0" r="819.2" fx="12" fy="0"><stop offset="0" stop-color="#f7b98f"/><stop offset="1" stop-color="#fddbbe"/></radialGradient><path d="M1.2-3.55l.15.25v.1l-.15-.35M2 3.2l-.05.4-.65.35-.1-.05-.1-.65-.15.3-.1.25-.35.25-.65.2-.7-.2-.1-.25.15-.35.2-.55-.1-.4-.05-.2q-.25-.35-.65-.35-.25 0-.5.15l-.05.55.1-1.4.05-1.2V-.1l.05-.05v.05l.4-2.25Q-.8-5-.2-4.9q.35 0 .85.55l.2.8.45 1.8Q1.3-.7 1.55.2v.1l.35 2.6.05.15.05.15" fill="url(#a)"/><radialGradient id="b" gradientUnits="userSpaceOnUse" gradientTransform="matrix(.00545 .00212 -.00397 .00935 1.55 .35)" spreadMethod="pad" cx="0" cy="0" r="819.2" fx="0" fy="0"><stop offset="0" stop-color="#f39b61" stop-opacity=".451"/><stop offset="1" stop-color="#fddabc"/></radialGradient><path d="M1.55-2.25l-.1-.5.1.5" fill="url(#b)"/><radialGradient id="c" gradientUnits="userSpaceOnUse" gradientTransform="matrix(.00378 0 0 .00378 -.25 4.7)" spreadMethod="pad" cx="0" cy="0" r="819.2" fx="0" fy="0"><stop offset=".008" stop-color="#f3ad80" stop-opacity=".792"/><stop offset="1" stop-color="#f3ad80" stop-opacity=".471"/></radialGradient><path d="M1.2 3.9l.1.05.65-.35.05-.4-.05-.15.05.15.1.5-.5.4-.5.15-.45.4-.65.3-.7-.1-.5-.4-.15-.2L-2 3.9l-.2-.55.1-.3V3h.05l.05.25.2.5.6.1.1-.05.25.6.75.15.55-.05.2-.1.15-.2.15-.25.1-.05h.15m-3.25-.95l.1-.05-.05.05h-.05" fill="url(#c)"/><radialGradient id="d" gradientUnits="userSpaceOnUse" gradientTransform="matrix(.00545 .00212 -.00397 .00935 1.7 2.85)" spreadMethod="pad" cx="0" cy="0" r="819.2" fx="0" fy="0"><stop offset="0" stop-color="#f39b61" stop-opacity=".141"/><stop offset="1" stop-color="#fddabc" stop-opacity=".714"/></radialGradient><path d="M1.05 3.9l-.1.05-.15.25-.15.2-.2.1-.55.05-.75-.15-.25-.6h.15l.1.25.7.2.65-.2.35-.25.1-.25.15-.3.1.65h-.15" fill="url(#d)"/><radialGradient id="e" gradientUnits="userSpaceOnUse" gradientTransform="matrix(.002 -.00053 .0006 .0026 -3.15 4.1)" spreadMethod="pad" cx="0" cy="0" r="819.2" fx="0" fy="0"><stop offset="0" stop-color="#f39b61"/><stop offset="1" stop-color="#fddabc"/></radialGradient><path d="M-1.1 3.8l-.1.05-.6-.1-.2-.5-.05-.25v-.05H-2l.05-.05v-.25l.05-.55q.25-.15.5-.15.4 0 .65.35l.05.2.1.4-.2.55-.15.35h-.15" fill="url(#e)"/><radialGradient id="f" gradientUnits="userSpaceOnUse" gradientTransform="matrix(.0019 -.00008 0 .0019 0 2.95)" spreadMethod="pad" cx="0" cy="0" r="819.2" fx="0" fy="0"><stop offset=".008" stop-color="#fff" stop-opacity=".471"/><stop offset="1" stop-color="#fff" stop-opacity="0"/></radialGradient><path d="M.95 3.5L0 3.9l-1-.25q-.4-.35-.15-.8l.1-.25.3-.4.2-.4.65-.35h.05q.6-.05.9.8l.1.55-.2.7" fill="url(#f)"/><radialGradient id="g" gradientUnits="userSpaceOnUse" gradientTransform="matrix(.0007 -.00003 0 .00249 .1 -.65)" spreadMethod="pad" cx="0" cy="0" r="819.2" fx="0" fy="0"><stop offset=".008" stop-color="#fff" stop-opacity=".392"/><stop offset="1" stop-color="#fff" stop-opacity="0"/></radialGradient><path d="M.25.45l-.3.95H-.1L-.3.65V-.2l.05-1.45.3-.55q.3-.05.35 1.15L.25.45" fill="url(#g)"/><radialGradient id="h" gradientUnits="userSpaceOnUse" gradientTransform="matrix(.00095 0 0 .00095 1.8 2.7)" spreadMethod="pad" cx="0" cy="0" r="819.2" fx="0" fy="0"><stop offset=".008" stop-color="#fff" stop-opacity=".161"/><stop offset="1" stop-color="#fff" stop-opacity="0"/></radialGradient><path d="M1.5 2.9l.05-.1.1-.1q.05-.2.3-.2l.25.15-.2.45-.35.3-.25-.05.05-.35.05-.1" fill="url(#h)"/><radialGradient id="i" gradientUnits="userSpaceOnUse" gradientTransform="matrix(.00117 0 0 .00117 -1.8 2.9)" spreadMethod="pad" cx="0" cy="0" r="819.2" fx="0" fy="0"><stop offset=".008" stop-color="#fff" stop-opacity=".161"/><stop offset="1" stop-color="#fff" stop-opacity="0"/></radialGradient><path d="M-1.95 2.65q.35 0 .45.15l.1.25v.3l-.15.05-.2-.05-.25-.5.05-.2" fill="url(#i)"/></g></svg>

<?xml version="1.0" encoding="utf-8"?>
<svg version="1.1" id="Layer_1"
xmlns="http://www.w3.org/2000/svg"
xmlns:xlink="http://www.w3.org/1999/xlink"
xmlns:author="http://www.sothink.com"
width="5px" height="10px"
xml:space="preserve">
<g id="464" transform="matrix(1, 0, 0, 1, 2.2, 4.9)">
<radialGradient
id="RadialGradID_4051" gradientUnits="userSpaceOnUse" gradientTransform="matrix(0, -0.00312805, 0.00746155, -0.000305176, 0.45, 6.4)" spreadMethod ="pad" cx="0" cy="0" r="819.2" fx="12" fy="0" >
<stop  offset="0"  style="stop-color:#F7B98F;stop-opacity:1" />
<stop  offset="1"  style="stop-color:#FDDBBE;stop-opacity:1" />
</radialGradient>
<path style="fill:url(#RadialGradID_4051) " d="M1.2,-3.55L1.35 -3.3L1.35 -3.2L1.2 -3.55M2,3.2L1.95 3.6L1.3 3.95L1.2 3.9L1.1 3.25L0.95 3.55L0.85 3.8L0.5 4.05L-0.15 4.25L-0.85 4.05L-0.95 3.8L-0.8 3.45L-0.6 2.9L-0.7 2.5L-0.75 2.3Q-1 1.95 -1.4 1.95Q-1.65 1.95 -1.9 2.1L-1.95 2.65L-1.85 1.25L-1.8 0.05L-1.8 -0.1L-1.75 -0.15L-1.75 -0.1L-1.35 -2.35Q-0.8 -5 -0.2 -4.9Q0.15 -4.9 0.65 -4.35L0.85 -3.55L1.3 -1.75Q1.3 -0.7 1.55 0.2L1.55 0.3L1.9 2.9L1.95 3.05L2 3.2" />
<radialGradient
id="RadialGradID_4052" gradientUnits="userSpaceOnUse" gradientTransform="matrix(0.00544739, 0.00212097, -0.00396729, 0.00935364, 1.55, 0.35)" spreadMethod ="pad" cx="0" cy="0" r="819.2" fx="0" fy="0" >
<stop  offset="0"  style="stop-color:#F39B61;stop-opacity:0.45098" />
<stop  offset="1"  style="stop-color:#FDDABC;stop-opacity:1" />
</radialGradient>
<path style="fill:url(#RadialGradID_4052) " d="M1.55,-2.25L1.45 -2.75L1.55 -2.25" />
<radialGradient
id="RadialGradID_4053" gradientUnits="userSpaceOnUse" gradientTransform="matrix(0.00378418, 0, 0, 0.00378418, -0.25, 4.7)" spreadMethod ="pad" cx="0" cy="0" r="819.2" fx="0" fy="0" >
<stop  offset="0.00784314"  style="stop-color:#F3AD80;stop-opacity:0.792157" />
<stop  offset="1"  style="stop-color:#F3AD80;stop-opacity:0.470588" />
</radialGradient>
<path style="fill:url(#RadialGradID_4053) " d="M1.2,3.9L1.3 3.95L1.95 3.6L2 3.2L1.95 3.05L2 3.2L2.1 3.7L1.6 4.1L1.1 4.25L0.65 4.65L0 4.95L-0.7 4.85L-1.2 4.45L-1.35 4.25L-2 3.9L-2.2 3.35L-2.1 3.05L-2.1 3L-2.05 3L-2 3.25L-1.8 3.75L-1.2 3.85L-1.1 3.8L-0.85 4.4L-0.1 4.55L0.45 4.5L0.65 4.4L0.8 4.2L0.95 3.95L1.05 3.9L1.2 3.9M-2.05,2.95L-1.95 2.9L-2 2.95L-2.05 2.95" />
<radialGradient
id="RadialGradID_4054" gradientUnits="userSpaceOnUse" gradientTransform="matrix(0.00544739, 0.00212097, -0.00396729, 0.00935364, 1.7, 2.85)" spreadMethod ="pad" cx="0" cy="0" r="819.2" fx="0" fy="0" >
<stop  offset="0"  style="stop-color:#F39B61;stop-opacity:0.141176" />
<stop  offset="1"  style="stop-color:#FDDABC;stop-opacity:0.713725" />
</radialGradient>
<path style="fill:url(#RadialGradID_4054) " d="M1.05,3.9L0.95 3.95L0.8 4.2L0.65 4.4L0.45 4.5L-0.1 4.55L-0.85 4.4L-1.1 3.8L-0.95 3.8L-0.85 4.05L-0.15 4.25L0.5 4.05L0.85 3.8L0.95 3.55L1.1 3.25L1.2 3.9L1.05 3.9" />
<radialGradient
id="RadialGradID_4055" gradientUnits="userSpaceOnUse" gradientTransform="matrix(0.0019989, -0.000534058, 0.000595093, 0.00259399, -3.15, 4.1)" spreadMethod ="pad" cx="0" cy="0" r="819.2" fx="0" fy="0" >
<stop  offset="0"  style="stop-color:#F39B61;stop-opacity:1" />
<stop  offset="1"  style="stop-color:#FDDABC;stop-opacity:1" />
</radialGradient>
<path style="fill:url(#RadialGradID_4055) " d="M-1.1,3.8L-1.2 3.85L-1.8 3.75L-2 3.25L-2.05 3L-2.05 2.95L-2 2.95L-1.95 2.9L-1.95 2.65L-1.9 2.1Q-1.65 1.95 -1.4 1.95Q-1 1.95 -0.75 2.3L-0.7 2.5L-0.6 2.9L-0.8 3.45L-0.95 3.8L-1.1 3.8" />
<radialGradient
id="RadialGradID_4056" gradientUnits="userSpaceOnUse" gradientTransform="matrix(0.00189209, -7.62939e-005, 0, 0.00189209, 0, 2.95)" spreadMethod ="pad" cx="0" cy="0" r="819.2" fx="0" fy="0" >
<stop  offset="0.00784314"  style="stop-color:#FFFFFF;stop-opacity:0.470588" />
<stop  offset="1"  style="stop-color:#FFFFFF;stop-opacity:0" />
</radialGradient>
<path style="fill:url(#RadialGradID_4056) " d="M0.95,3.5L0 3.9L-1 3.65Q-1.4 3.3 -1.15 2.85L-1.05 2.6L-0.75 2.2L-0.55 1.8L0.1 1.45L0.15 1.45Q0.75 1.4 1.05 2.25L1.15 2.8L0.95 3.5" />
<radialGradient
id="RadialGradID_4057" gradientUnits="userSpaceOnUse" gradientTransform="matrix(0.000701904, -3.05176e-005, 0, 0.00248718, 0.1, -0.65)" spreadMethod ="pad" cx="0" cy="0" r="819.2" fx="0" fy="0" >
<stop  offset="0.00784314"  style="stop-color:#FFFFFF;stop-opacity:0.392157" />
<stop  offset="1"  style="stop-color:#FFFFFF;stop-opacity:0" />
</radialGradient>
<path style="fill:url(#RadialGradID_4057) " d="M0.25,0.45L-0.05 1.4L-0.1 1.4L-0.3 0.65L-0.3 -0.2L-0.25 -1.65L0.05 -2.2Q0.35 -2.25 0.4 -1.05L0.25 0.45" />
<radialGradient
id="RadialGradID_4058" gradientUnits="userSpaceOnUse" gradientTransform="matrix(0.000946045, 0, 0, 0.000946045, 1.8, 2.7)" spreadMethod ="pad" cx="0" cy="0" r="819.2" fx="0" fy="0" >
<stop  offset="0.00784314"  style="stop-color:#FFFFFF;stop-opacity:0.160784" />
<stop  offset="1"  style="stop-color:#FFFFFF;stop-opacity:0" />
</radialGradient>
<path style="fill:url(#RadialGradID_4058) " d="M1.5,2.9L1.55 2.8L1.65 2.7Q1.7 2.5 1.95 2.5L2.2 2.65L2 3.1L1.65 3.4L1.4 3.35L1.45 3L1.5 2.9" />
<radialGradient
id="RadialGradID_4059" gradientUnits="userSpaceOnUse" gradientTransform="matrix(0.00117493, 0, 0, 0.00117493, -1.8, 2.9)" spreadMethod ="pad" cx="0" cy="0" r="819.2" fx="0" fy="0" >
<stop  offset="0.00784314"  style="stop-color:#FFFFFF;stop-opacity:0.160784" />
<stop  offset="1"  style="stop-color:#FFFFFF;stop-opacity:0" />
</radialGradient>
<path style="fill:url(#RadialGradID_4059) " d="M-1.95,2.65Q-1.6 2.65 -1.5 2.8L-1.4 3.05L-1.4 3.35L-1.55 3.4L-1.75 3.35L-2 2.85L-1.95 2.65" />
</g>
</svg>
